packages/core/src/svgs/crwny.svg

<svg width="24" height="24" viewBox="0 0 24 24" fill="none" xmlns="http://www.w3.org/2000/svg">
<g clip-path="url(#clip0_31_8802)">
<path d="M0 0H24V24H0V0Z" fill="url(#paint0_linear_31_8802)"/>
<path d="M7.33725 9.85693C7.50868 9.85693 7.65439 9.96408 7.71439 10.1184C7.71439 10.1184 9.36011 14.3055 9.77582 14.3055C10.0715 14.3055 11.5201 10.7826 11.5201 10.7826C11.5504 10.7096 11.6015 10.6471 11.667 10.6029C11.7325 10.5587 11.8096 10.5348 11.8887 10.5341H12.1072C12.2701 10.5341 12.4158 10.6326 12.4758 10.7826C12.4758 10.7826 13.9244 14.3055 14.2201 14.3055C14.6358 14.3055 16.2858 10.1184 16.2858 10.1184C16.3415 9.96408 16.4915 9.86122 16.6587 9.85693H18.0215C18.3172 9.85693 18.5144 10.1784 18.3901 10.4655C18.3901 10.4655 17.8158 13.3112 14.8844 18.1755C14.8115 18.3212 14.6701 18.4155 14.5115 18.4284H14.323C14.1687 18.4284 14.143 18.4284 13.963 18.1884C13.8645 18.0493 13.7674 17.9093 13.6715 17.7684L13.5558 17.5969L13.4401 17.4255C12.6987 16.3112 12.0644 15.2226 12.0644 15.2226C12.0644 15.2056 12.0576 15.1892 12.0456 15.1772C12.0335 15.1651 12.0172 15.1584 12.0001 15.1584C11.9831 15.1584 11.9667 15.1651 11.9546 15.1772C11.9426 15.1892 11.9358 15.2056 11.9358 15.2226C11.9358 15.2226 10.9715 16.8684 10.0372 18.1884C9.85725 18.4284 9.82725 18.4284 9.67296 18.4284H9.48439C9.32582 18.4155 9.18439 18.3169 9.11582 18.1755C6.18868 13.3112 5.61011 10.4612 5.61011 10.4612C5.48582 10.1784 5.68296 9.85693 5.97868 9.85693H7.33725Z" fill="white"/>
<path d="M12.4027 6C12.5013 6 12.5913 6.04714 12.647 6.12857L13.1227 6.83571C13.1553 6.88457 13.1747 6.94097 13.1792 6.9995C13.1838 7.05803 13.1731 7.11674 13.1485 7.17L12.0685 8.97C12.0651 8.97867 12.0592 8.98615 12.0516 8.99149C12.0439 8.99683 12.0349 8.99979 12.0256 9C12.0168 9.00016 12.0081 8.99784 12.0005 8.99329C11.9929 8.98874 11.9868 8.98216 11.9827 8.97429L10.9113 7.17429C10.886 7.12138 10.8747 7.06287 10.8784 7.00435C10.8822 6.94582 10.9009 6.88924 10.9327 6.84L11.4042 6.13286C11.4642 6.04714 11.5542 6.00429 11.6527 6H12.4027ZM5.8456 6.46286L6.59132 7.01143C6.73703 7.11857 6.78417 7.32429 6.70703 7.49571L5.99132 8.88C5.95274 8.95714 5.89274 9 5.78989 9C5.71274 8.98286 5.65274 8.88857 5.64846 8.79857C5.64846 8.79857 5.60989 8.34 5.57989 7.78286C5.56703 7.57714 5.56274 7.36286 5.56274 7.17429V6.94286C5.56274 6.75429 5.57132 6.62571 5.57132 6.62571C5.56703 6.55286 5.59274 6.48857 5.65703 6.45429C5.68585 6.4371 5.71908 6.42876 5.7526 6.43028C5.78612 6.4318 5.81846 6.44313 5.8456 6.46286ZM18.1327 6.46286C18.1885 6.42 18.2613 6.42 18.3213 6.45429C18.3813 6.48857 18.4199 6.55714 18.4156 6.62571L18.4199 7.00286V7.17429C18.4199 7.36286 18.4199 7.58143 18.407 7.78714C18.3727 8.34429 18.3342 8.80286 18.3342 8.80286C18.3342 8.88857 18.2742 8.98286 18.1927 9C18.1113 9.01714 18.0299 8.95714 17.9913 8.88L17.2756 7.49571C17.2383 7.41325 17.2298 7.32062 17.2516 7.23276C17.2734 7.1449 17.3241 7.06693 17.3956 7.01143L18.1327 6.46286Z" fill="url(#paint1_linear_31_8802)"/>
</g>
<defs>
<linearGradient id="paint0_linear_31_8802" x1="12" y1="0" x2="12" y2="24" gradientUnits="userSpaceOnUse">
<stop stop-color="#4D2775"/>
<stop offset="1" stop-color="#5A328B"/>
</linearGradient>
<linearGradient id="paint1_linear_31_8802" x1="11.9999" y1="6.55286" x2="11.9999" y2="7.73143" gradientUnits="userSpaceOnUse">
<stop stop-color="#EBD19C"/>
<stop offset="1" stop-color="#DFAF6E"/>
</linearGradient>
<clipPath id="clip0_31_8802">
<rect width="24" height="24" fill="white"/>
</clipPath>
</defs>
</svg>

<svg xmlns="http://www.w3.org/2000/svg" width="24" height="24" fill="none" viewBox="0 0 24 24"><g clip-path="url(#a)"><path fill="url(#b)" d="M0 0h24v24H0z"/><path fill="#fff" d="M7.337 9.857c.172 0 .317.107.377.261 0 0 1.646 4.188 2.062 4.188.296 0 1.744-3.523 1.744-3.523a.4.4 0 0 1 .369-.249h.218c.163 0 .309.099.369.249 0 0 1.448 3.523 1.744 3.523.416 0 2.066-4.188 2.066-4.188a.405.405 0 0 1 .373-.261h1.363c.295 0 .492.321.368.609 0 0-.574 2.845-3.506 7.71a.46.46 0 0 1-.373.252h-.188c-.154 0-.18 0-.36-.24q-.148-.209-.291-.42l-.116-.171-.116-.172c-.741-1.114-1.376-2.202-1.376-2.202a.064.064 0 0 0-.128 0s-.964 1.645-1.899 2.965c-.18.24-.21.24-.364.24h-.189a.45.45 0 0 1-.368-.253c-2.927-4.864-3.506-7.714-3.506-7.714-.124-.283.073-.604.369-.604z"/><path fill="url(#c)" d="M12.403 6c.098 0 .188.047.244.129l.476.707a.34.34 0 0 1 .026.334l-1.08 1.8a.05.05 0 0 1-.043.03.05.05 0 0 1-.043-.026l-1.072-1.8a.34.34 0 0 1 .022-.334l.471-.707A.31.31 0 0 1 11.653 6zm-6.557.463.745.548a.4.4 0 0 1 .116.485L5.991 8.88c-.038.077-.098.12-.201.12-.077-.017-.137-.111-.142-.201 0 0-.038-.459-.068-1.016a10 10 0 0 1-.017-.609v-.231c0-.189.008-.317.008-.317-.004-.073.022-.137.086-.172a.17.17 0 0 1 .189.009m12.287 0a.17.17 0 0 1 .188-.009c.06.035.099.103.095.172l.004.377v.171c0 .189 0 .407-.013.613-.034.557-.073 1.016-.073 1.016 0 .086-.06.18-.141.197-.082.017-.163-.043-.202-.12l-.715-1.384a.4.4 0 0 1 .12-.485z"/></g><defs><linearGradient id="b" x1="12" x2="12" y1="0" y2="24" gradientUnits="userSpaceOnUse"><stop stop-color="#4D2775"/><stop offset="1" stop-color="#5A328B"/></linearGradient><linearGradient id="c" x1="12" x2="12" y1="6.553" y2="7.731" gradientUnits="userSpaceOnUse"><stop stop-color="#EBD19C"/><stop offset="1" stop-color="#DFAF6E"/></linearGradient><clipPath id="a"><path fill="#fff" d="M0 0h24v24H0z"/></clipPath></defs></svg>
